fs/text_header_1_20_filled.svg

<svg viewBox="0 0 20 20" fill="none" xmlns="http://www.w3.org/2000/svg" height="1em" width="1em">
  <path d="M16.5725 3.82286C16.4981 3.78737 16.417 3.76377 16.3315 3.75454C16.1242 3.73162 15.9234 3.79671 15.771 3.92301C15.6922 3.98833 15.6263 4.07002 15.5792 4.16437C15.5496 4.22337 15.5276 4.28681 15.5143 4.35343C15.2597 5.49132 14.2065 6.96109 12.834 7.87612C12.4893 8.10589 12.3962 8.57154 12.626 8.91618C12.8557 9.26083 13.3214 9.35396 13.666 9.1242C14.3432 8.67278 14.9718 8.09973 15.5 7.46864V15.5002C15.5 15.9144 15.8358 16.2502 16.25 16.2502C16.6642 16.2502 17 15.9144 17 15.5002V4.51568C17.0038 4.34018 16.9455 4.17272 16.8418 4.03936C16.7713 3.9487 16.6798 3.87381 16.5725 3.82286ZM3.5 4.50016C3.5 4.08594 3.16421 3.75016 2.75 3.75016C2.33579 3.75016 2 4.08594 2 4.50016V15.5002C2 15.9144 2.33579 16.2502 2.75 16.2502C3.16421 16.2502 3.5 15.9144 3.5 15.5002V10.5002H8.5V15.5002C8.5 15.9144 8.83579 16.2502 9.25 16.2502C9.66421 16.2502 10 15.9144 10 15.5002V4.50016C10 4.08594 9.66421 3.75016 9.25 3.75016C8.83579 3.75016 8.5 4.08594 8.5 4.50016V9.00016H3.5V4.50016Z" fill="#212121"/>
</svg>

<svg viewBox="0 0 20 20" fill="none" xmlns="http://www.w3.org/2000/svg" height="1em" width="1em">
  <path d="M16.573 3.823a.75.75 0 0 0-1.058.53c-.255 1.138-1.308 2.608-2.681 3.523a.75.75 0 1 0 .832 1.248A8.769 8.769 0 0 0 15.5 7.47v8.03a.75.75 0 0 0 1.5 0V4.516a.75.75 0 0 0-.427-.693ZM3.5 4.5a.75.75 0 1 0-1.5 0v11a.75.75 0 0 0 1.5 0v-5h5v5a.75.75 0 0 0 1.5 0v-11a.75.75 0 1 0-1.5 0V9h-5V4.5Z" fill="#212121"/>
</svg>
